X: 1
T: Leben Zol Palestina  [Dm]
%T: Smokin' Bulgar
R: bulgar
D: DRK-204 "Git Azoy" the 12 Corners Klezmer Band
M: 4/4
L: 1/8
K: Ddor
z3 \
|  "Dm"zA AA c/B/A A2 | zF FF A/^G/F F2 | zD DD F/E/D ^C/D/E | D2 A2 (3A^GF (3FED |
|  "Dm"zA AA c/B/A d2 | zF FF A/^G/F A2 | zD DD F/E/D ^C/D/E | D4 z :|
|: "A7"(AB^c \
| "Dm"d)c BA ^GA Bc | {c/}BA {A/}^GF EF ^GA | {c/}BA {A/}^GF {A/}^GF {F/}ED | (^GA7) |
| "Dm"dc BA ^GA Bc | {c/}BA {A/}^GF EF ^GA | {c/}BA {A/}^GF {A/}^GF {F/}ED | D4 z :|
K:D
|: "A7"Ade \
| "D"f4- fdag | f4- ffed | "A7"efga fdec |1,3 "D"a2 z3 :|2,4 "D"d4 z :|

%%sep 1 1 500

